X:1
T:Thine Eyes Still Shined For Me
T:Thine Eyes Still Shined For Me
T:Copyright © CPDL
T:Copyright © CPDL
T:Copyright © CPDL
T:Copyright © CPDL
T:Copyright © CPDL
Z:Copyright © CPDL
%%score 1 { ( 2 3 ) ( 4 5 ) }
L:1/8
Q:1/4=70
M:3/4
K:D
V:1 treble nm="P1"
V:2 treble nm="P2"
V:3 treble 
V:4 bass nm="P3"
V:5 bass 
V:1
"^Editor: John Henry Fowler""^(  Revision:   6 - 5 - 2008  )""^Lento espressivo." z z2 | %1
w: |
"^Words by Ralph Waldo Emerson - (1803-1882)""^From \"English Lyrics\" -  Set 4 -  Number 1""^Dedicated \"To Dolly\"" z6 | %2
w: |
"^Charles Hubert Hastings Parry""^( 1848 - 1918 )" z6 | z6 | z2!mf! z!<(! F A!<)!d | %5
w: ||Thine eyes still|
 !>!c>B E2!<(! z!<)! B | ec e>!>(!d AF | G>!>)!A F2 z2 | z2 z!p! ^E ^Gc | BA c>f f2- | %10
w: shined for me, Though|far I lone- ly roved the|land or sea:|As I be-|\-~hold yon eve- ning star,|
 f^d e z/ B/ AB | G4 z2 | z!mf! B e3 c | B>^A!<(! Bc!<)!!<(! d2- | d!<)!d f3!>)!!>(! d | c^G A4 | %16
w: _ Which yet be- holds not|me.|This morn I|climbed the mis- ty hill,|_ And roamed the|pas- tures through;|
 z!<(! A B>A!<)! e2- | eA B>A d2- | dc"^poco rit." ^GA cG | A6 | z6 | z6 | %22
w: How danced thy form|_ be- fore my path|_ A- midst the deep- eyed|dew~!|||
 z2 z2!p! A>"^Poco animando"^A | BF FG FG | E4!<(! G2!<)! | =c3 B B>A | %26
w: When the|red- bird spread his sa- ble|wing, And|showed his side of|
"^crescendo   poco    a     poco" B4 B>d | dB AB G>B | d4!<(! d2!<)! | f6- | f3 d"^rit." e>F | %31
w: flame; When the|rose- bud ripen- ed to the|rose, In|both|_ I read thy|
"^a tempo"!>(! G4"^dim.""^dim." B2 | d6-!>)! | d3 z!p!"^rit." F2 | A4 A2 | A6 | z6 | z6 | z6 |] %39
w: name, in|both|_ I|read thy|name.||||
V:2
 (A A d) | (!>!c>B F)(B A>^G) | A3 z C[A,CA] | (!>!=G>F B,)(G F>E) | [F,DF]2 z [DF]2 [DF] | %5
 z!<(! ([DF]B[DEd]!<)! d>d) | e2!>(! z A z!>)! D | (G2 F)(F Ad) | c>B [^E^G] [EG]2 [EG] | %9
 z (.[A,CF] .[CFA].[FAc]) z [A,=CE]- | (E[B,^D] [G,B,E]).[G,B,] z [A,B,] | z (B, GB) (A>G) | %12
 [EGB]2 x2 [EGB]2 | z [EF] [B,E^G][CE^A] [DFB].[FBd] | [Bdf]2 z2 z [DFB] | %15
 z ([B,C-^E] [A,CF])[CFA] z [CFA] | z [CEA] z [CFA] z [A,GA]- | [A,GA][A,FA] z [A,FA]2 [A,=FA] | %18
 z [EA] (^G^F E>D) | x6 | z (F cf) (3(eBE) | (D[Ad] [Ac]C B,[AB]) | ([Ad]D Cc) A2 | %23
 ([^DFB][B,DF]) z ([B,D]F[B,DG]) | z E (FG B>e) | [EG=ce]2[K:bass] ([G,A,E]2 [F,=CD]2) | %26
 z (D EG) (B>d) | [DBd]2 z (D G>B) | [DFBd]D (!>!FE) (!>!cB) | [Fdf] [DFd]2 [CFc]2 [B,DB] | %30
!>(! ([B,DB]2!>)! [A,DA]2) z2 | z ([DGd]2 [B,DB]2 [A,DA]) | z ([A,DA]2 [^G,D^G]2 [=G,D=G]) | %33
 [G,DG] z z2 z2 | (A,2!<(! B,2!<)! F2) | x2 z!<(! (F A!<)!d) | (!>!c>!>(!B F)(B!>)! A>^G) | %37
 (B[A,FA]) z F [G,CA-]2 | A2 z2 z2 |] %39
V:3
 F2 [DF] | z [DF]2 [DF] z [B,^E] | z [A,F]2 x x2 | z [B,^D]2 [G,B,] z [G,C] | x6 | x4 z [DE] | %6
 z [EA] x D x D- | DC D D2 [DF] | z [DF] x4 | x6 | [A,C]2 x4 | x G, x [G,B,]2 [G,B,] | x6 | x6 | %14
 x6 | x6 | x6 | x6 | x6 | C(A ea) (3(^gd^G) | x (F3 (3:2:2F2) E | D3 C B,2 | x4 CA, | x6 | %24
 x B,2 [B,E] B[EG] | x2[K:bass] x4 | x B,2 [B,D] B[DF] | x2 x B,2 [B,D] | x2 [B,D]2 [DF]2 | x6 | %30
 x6 | x6 | x6 | x6 | A,4 [G,C]2 | [F,D]2 x D2 [DF] | z [DF]2 [DF] z [B,^E] | x4 (E>F | %38
 [F,D]2) x2 x2 |] %39
V:4
!mf!!<(! z!<)! z2 | z!>(! (B,, D,!>)!^G,) [C,,C,]2 | z (C, F,(A, ^G,F,)) | (B,,,2 E,,2) A,,2 | %4
 (D,,A,,D,F, E,D,) | z"^cresc."!<(! [F,B,]2 [E,B,]!<)! E,,[E,^G,] | %6
 G,,[E,A,]"^dim."!>(! F,,[D,A,] z!>)! [D,A,] | E,,[E,A,] z!<(! [D,A,]2!<)! [D,A,] | %8
!>(! ^G,,[F,B,]!>)! ^G,(!>!C G,^E,) | (^G,2!<(! F,2)!<)! !>![F,,F,]2 |!>(! [B,,,B,,]4!>)! B,,2 | %11
!p! z [B,,E,]2 [B,,E,]2 [B,,E,] | z ([E,G,B,] [G,B,E][B,EG] z) C, | [F,,F,]2 z2 [B,,F,]2 | %14
 [^G,,,^G,,]([D,F,B,] [F,B,D][B,DF]) G,,2 |!>(! (C,2!>)! F,,2) F,2 | (=G,2 F,2 C,2) | D,2 z2 B,,2 | %18
 x C"^poco rit." B,A, ^G,B, |!mf! A,2 ([CE]2 [B,D]2) | x2 ([A,C]2 [^G,B,]2) | [A,,A,]6 | %22
!>(! [A,,A,]4!>)! =G,2 | x6 | z2!<(! [E,G,]2!<)! [E,,E,]2 |!>(! [A,,,A,,]2!>)! (A,,2 [D,,D,]2) | %26
 [G,,,G,,]2 [G,,D,]2!<)!!<(! [D,,D,]2 | [G,,,G,,]2 [G,,D,]2!<)!!<(! [G,,,G,,]2 | %28
"^cresc." [^G,,,^G,,]D, (F,E,) (CB,) |!<(! [A,,,A,,]2 [^A,,,^A,,]2!<)! [B,,,B,,]2 | %30
!>(! z2!>)!"^rit." [D,F,]2 z2 |"^a tempo""^dim."!>(! ([B,,,B,,]2 [G,,,G,,]2 [=F,,,=F,,]2) | %32
 ([E,,,E,,]2 E,2) [_B,,,_B,,]2 | [A,,,A,,]2!>)! z2"^rit." z2 | z2 z2 A,,2 | %35
 ([D,,A,,]D, F,)!<(! z!<)! z2 |!>(! [^G,,,^G,,]4!>)! [C,,C,]2 | [F,,,F,,]2!p! z2 [A,,,A,,]2 | %38
 [D,,,D,,]2 z2 z2 |] %39
V:5
 x3 | [^G,,,^G,,]4 x2 | [F,,,F,,]4 x2 | x6 | D,,2 x2 x2 | !>!^G,,4 E,,2 | =G,,2 F,,2 x2 | %7
 E,,2 D,,2 x2 | (^G,,2 C,) z z2 | [F,,C,]4 x2 | x6 | E,,4 D,,2 | C,,2 x2 x2 | x6 | x6 | x6 | x6 | %17
 x6 | E,4 E,,2 | [A,,,A,,]2 E,4 | [A,,,A,,]2 E,4 | F,2 E,2!<(! D,2!<)! | (F,2 E,2) x2 | %23
 [A,,F,]2 z2 [A,,,A,,]2 | [G,,,G,,]4 x2 | x6 | x6 | x6 | x2 [B,,D,]2 [D,F,]2 | x6 | [=C,,=C,]4 x2 | %31
 x6 | x6 | x6 | x6 | x6 | x6 | x6 | x6 |] %39

